build/images/SVG/1/envelop.svg

<!-- Generated by IcoMoon.io -->
<svg version="1.1" xmlns="http://www.w3.org/2000/svg" width="32" height="32" viewBox="0 0 32 32">
<title>envelop</title>
<path d="M5.315 9.274l7.735 6.726-7.737 6.728c-0.194-0.184-0.313-0.445-0.313-0.735v-11.986c0-0.289 0.121-0.549 0.315-0.733zM27.687 9.272c0.194 0.184 0.313 0.445 0.313 0.735v11.986c0 0.289-0.121 0.549-0.315 0.733l-7.735-6.726 7.737-6.728zM19.202 16.651l7.298 6.349h-20l7.298-6.349 2.702 2.349 2.702-2.349zM6.004 8c-1.107 0-2.004 0.895-2.004 1.994v12.012c0 1.101 0.89 1.994 2.004 1.994h20.993c1.107 0 2.004-0.895 2.004-1.994v-12.012c0-1.101-0.89-1.994-2.004-1.994h-20.993zM16.5 17.7l-10-8.7h20l-10 8.7z"></path>
</svg>

<svg xmlns="http://www.w3.org/2000/svg" width="32" height="32" viewBox="0 0 32 32"><title>envelop</title><path d="M5.315 9.274L13.05 16l-7.737 6.728A1.008 1.008 0 0 1 5 21.993V10.007c0-.289.121-.549.315-.733zm22.372-.002c.194.184.313.445.313.735v11.986c0 .289-.121.549-.315.733L19.95 16l7.737-6.728zm-8.485 7.379L26.5 23h-20l7.298-6.349L16.5 19l2.702-2.349zM6.004 8A2 2 0 0 0 4 9.994v12.012C4 23.107 4.89 24 6.004 24h20.993a2 2 0 0 0 2.004-1.994V9.994c0-1.101-.89-1.994-2.004-1.994H6.004zM16.5 17.7L6.5 9h20l-10 8.7z"/></svg>
